src/assets/sidebar5.svg

<svg width="23" height="23" viewBox="0 0 23 23" fill="none" xmlns="http://www.w3.org/2000/svg">
<path d="M17.725 18.35C16.504 18.35 15.525 19.329 15.525 20.55C15.525 21.1335 15.7568 21.6931 16.1694 22.1056C16.5819 22.5182 17.1415 22.75 17.725 22.75C18.3085 22.75 18.8681 22.5182 19.2806 22.1056C19.6932 21.6931 19.925 21.1335 19.925 20.55C19.925 19.9665 19.6932 19.4069 19.2806 18.9944C18.8681 18.5818 18.3085 18.35 17.725 18.35ZM0.125 0.75V2.95H2.325L6.285 11.299L4.789 13.994C4.624 14.302 4.525 14.665 4.525 15.05C4.525 15.6335 4.75679 16.1931 5.16937 16.6056C5.58195 17.0182 6.14152 17.25 6.725 17.25H19.925V15.05H7.187C7.11407 15.05 7.04412 15.021 6.99255 14.9695C6.94097 14.9179 6.912 14.8479 6.912 14.775C6.912 14.72 6.923 14.676 6.945 14.643L7.935 12.85H16.13C16.955 12.85 17.681 12.388 18.055 11.717L21.993 4.6C22.07 4.424 22.125 4.237 22.125 4.05C22.125 3.75826 22.0091 3.47847 21.8028 3.27218C21.5965 3.06589 21.3167 2.95 21.025 2.95H4.756L3.722 0.75M6.725 18.35C5.504 18.35 4.525 19.329 4.525 20.55C4.525 21.1335 4.75679 21.6931 5.16937 22.1056C5.58195 22.5182 6.14152 22.75 6.725 22.75C7.30848 22.75 7.86805 22.5182 8.28063 22.1056C8.69321 21.6931 8.925 21.1335 8.925 20.55C8.925 19.9665 8.69321 19.4069 8.28063 18.9944C7.86805 18.5818 7.30848 18.35 6.725 18.35Z" fill="black"/>
</svg>

<svg xmlns="http://www.w3.org/2000/svg" width="23" height="23" fill="none"><path fill="#000" d="M17.725 18.35c-1.221 0-2.2.979-2.2 2.2a2.2 2.2 0 1 0 2.2-2.2M.125.75v2.2h2.2l3.96 8.349-1.496 2.695a2.24 2.24 0 0 0-.264 1.056 2.2 2.2 0 0 0 2.2 2.2h13.2v-2.2H7.187a.275.275 0 0 1-.275-.275q0-.082.033-.132l.99-1.793h8.195c.825 0 1.551-.462 1.925-1.133L21.993 4.6c.077-.176.132-.363.132-.55a1.1 1.1 0 0 0-1.1-1.1H4.756L3.722.75m3.003 17.6c-1.221 0-2.2.979-2.2 2.2a2.2 2.2 0 1 0 2.2-2.2"/></svg>
